source/img/comfortable.svg

<svg width="52" height="56" viewBox="0 0 52 56" fill="none" xmlns="http://www.w3.org/2000/svg">
<path d="M4 4H52L48 48L28 56L8 48L4 4Z" fill="#F0EBFF"/>
<path fill-rule="evenodd" clip-rule="evenodd" d="M1.00412 0H0L0.0909091 1L4 44L24 52L44 44L47.9091 1L48 0H46.9959H1.00412ZM1.09503 1L1.45867 5H5H5.50198H6.00396H6.9H10.7H14.5H18.3H22.1H25.9H29.7H33.5H37.3H41.1H41.996H42.498H43H46.5413L46.905 1H1.09503ZM41.9069 6H41.1H37.3H33.5H29.7H25.9H22.1H18.3H14.5H10.7H6.9H6.09307L6.19397 7.1324L5.69594 7.17678L5.19792 7.22115L5.08911 6H1.54958L4.94041 43.2991L24 50.923L43.0596 43.2991L46.4504 6H42.9109L42.8021 7.22115L42.3041 7.17678L41.806 7.1324L41.9069 6ZM6.09178 11.6191L5.59375 11.6635L5.98958 16.1058L6.48761 16.0614L6.98564 16.017L6.5898 11.5747L6.09178 11.6191ZM6.88344 20.5037L6.38542 20.5481L6.78125 24.9904L7.27928 24.946L7.7773 24.9016L7.38147 20.4593L6.88344 20.5037ZM7.67511 29.3883L7.17708 29.4327L7.57292 33.875L8.07094 33.8306L8.56897 33.7862L8.17314 29.3439L7.67511 29.3883ZM8.46678 38.2729L7.96875 38.3173L8.16667 40.5385L10.1458 41.3462L10.3348 40.8832L10.5237 40.4203L9.10864 39.8428L8.9648 38.2286L8.46678 38.2729ZM14.2931 42.4986L14.1042 42.9615L18.0625 44.5769L18.2514 44.114L18.4403 43.6511L14.482 42.0357L14.2931 42.4986ZM22.2098 45.7294L22.0208 46.1923L24 47L25.9792 46.1923L25.7902 45.7294L25.6013 45.2664L24 45.9199L22.3987 45.2664L22.2098 45.7294ZM29.7486 44.114L29.9375 44.5769L33.8958 42.9615L33.7069 42.4986L33.518 42.0357L29.5597 43.6511L29.7486 44.114ZM37.6652 40.8832L37.8542 41.3462L39.8333 40.5385L40.0313 38.3173L39.5332 38.2729L39.0352 38.2286L38.8914 39.8428L37.4763 40.4203L37.6652 40.8832ZM39.9291 33.8306L40.4271 33.875L40.8229 29.4327L40.3249 29.3883L39.8269 29.3439L39.431 33.7862L39.9291 33.8306ZM40.7207 24.946L41.2188 24.9904L41.6146 20.5481L41.1166 20.5037L40.6185 20.4593L40.2227 24.9016L40.7207 24.946ZM41.5124 16.0614L42.0104 16.1058L42.4062 11.6635L41.9082 11.6191L41.4102 11.5747L41.0144 16.017L41.5124 16.0614Z" fill="#7859CF"/>
</svg>

<svg xmlns="http://www.w3.org/2000/svg" width="52" height="56" fill="none"><path fill="#F0EBFF" d="M4 4h48l-4 44-20 8-20-8L4 4Z"/><path fill="#7859CF" fill-rule="evenodd" d="M1.004 0H0l.09 1L4 44l20 8 20-8 3.91-43L48 0H1.004Zm.091 1 .364 4H46.54l.364-4H1.095Zm40.812 5H6.093l.101 1.132-.498.045-.498.044L5.089 6H1.55L4.94 43.3 24 50.922l19.06-7.624L46.45 6h-3.54l-.108 1.221-.498-.044-.498-.045.1-1.132ZM6.092 11.62l-.498.044.396 4.442.498-.045.498-.044-.396-4.442-.498.044Zm.791 8.884-.498.044.396 4.442.498-.044.498-.044-.396-4.443-.498.045Zm.792 8.884-.498.045.396 4.442.498-.044.498-.045-.396-4.442-.498.044Zm.792 8.885-.498.044.198 2.221 1.979.808.189-.463.189-.463-1.415-.577-.144-1.614-.498.044Zm5.826 4.226-.189.462 3.959 1.616.188-.463.19-.463-3.959-1.615-.189.463Zm7.917 3.23-.19.463L24 47l1.98-.808-.19-.463-.189-.463L24 45.92l-1.601-.654-.19.463Zm7.539-1.615.189.463 3.958-1.615-.19-.463-.188-.463-3.958 1.615.189.463Zm7.916-3.23.19.462 1.978-.807.198-2.222-.498-.044-.498-.044-.144 1.614-1.415.577.19.463Zm2.264-7.053.498.044.396-4.442-.498-.045-.498-.044-.396 4.442.498.045Zm.792-8.885.498.044.396-4.442-.498-.044-.498-.045-.396 4.443.498.044Zm.791-8.885.498.045.396-4.443-.498-.044-.498-.044-.396 4.442.498.044Z" clip-rule="evenodd"/></svg>
